X:1
T:I Almost Lost My Mind
C:1949 - Ivory Joe Hunter
Z:www.realbook.site
L:1/8
M:4/4
I:linebreak $
K:E
V:1 treble nm=" " snm=" "
V:1
|:"E" G4 z G A^A | B^A B4 z B, |"E" B2"A7" c2"E" B2"B7" =AG- |"E" G6"E7" z2 |$"A" c4 z c =d^d | %5
 ed e4 z E |"A" e2 e2"B7" d2 c2 |"E" cB- B3 z z =d |$"B7" ^dd (3dBA- A4 |"A7" z e2 =d"B7" B B2 c | %10
"E" GE- E6 | z4 z2 z B, :| %12

